X:1
T: Here We Go Again!
C:Bruce Shawyer
R:Strathspey
Q:128
K:G
M:4/4
L:1/16
|:B4 B3A GE3 E4|c3B A3G FD3 (3DFA|B4 Bd3 B4 Bd3|e3d c3B (3AFE (3DFA|
B4 B3A GE3 E4|c3B A3G FD3 (3DFA|B4 Bd3 B4 Bd3|e3c A3F G8|
B3A GB3 A3G FA3|G3F EG3 F3E D4|E3D CE3 D3C B,D3|C3B, A,3G, D4 (3DFA|
B3A GB3 A3G FA3|G3F EG3 F3E D4|E3D CE3 D3C B,4|E3C F3D G8:|
